app/assets/images/mtg_types/colorless.svg

<svg xmlns="http://www.w3.org/2000/svg" xmlns:svg="http://www.w3.org/2000/svg" width="600" height="600">
 <g>
  <title>Layer 1</title>
  <circle id="svg_1" fill="#ccc2c0" r="300" cy="300" cx="300"/>
  <path id="svg_2" fill="#130c0e" d="m300,60a500,500 0 0 0 240,240a500,500 0 0 0 -240,240a500,500 0 0 0 -240,-240a500,500 0 0 0 240,-240m0,90a300,300 0 0 1 -150,150a300,300 0 0 1 150,150a300,300 0 0 1 150,-150a300,300 0 0 1 -150,-150"/>
 </g>
</svg>

<svg xmlns="http://www.w3.org/2000/svg" viewBox="0 0 600 600"><circle cx="300" cy="300" r="300" fill="#ccc2c0"/><path d="M300 60A500 500 0 0 0 540 300 500 500 0 0 0 300 540 500 500 0 0 0 60 300 500 500 0 0 0 300 60m0 90A300 300 0 0 1 150 300 300 300 0 0 1 300 450 300 300 0 0 1 450 300 300 300 0 0 1 300 150" fill="#130c0e"/></svg>
